build/img/icons/warehouse.svg

<svg width="56" height="56" viewBox="0 0 56 56" fill="none" xmlns="http://www.w3.org/2000/svg">
<path d="M49.0039 17.9033L28.489 2.93297C28.3461 2.8276 28.1731 2.77075 27.9955 2.77075C27.818 2.77075 27.645 2.8276 27.5021 2.93297L7.54168 17.9033C7.43838 17.9807 7.35455 18.0812 7.29681 18.1967C7.23906 18.3122 7.209 18.4395 7.209 18.5686V47.4003C7.20827 47.51 7.22924 47.6187 7.27071 47.7203C7.31218 47.8218 7.37333 47.9142 7.45063 47.992C7.52793 48.0698 7.61986 48.1315 7.72113 48.1737C7.8224 48.2158 7.931 48.2375 8.04069 48.2375H48.5159C48.7365 48.2375 48.9481 48.1499 49.104 47.9939C49.26 47.838 49.3476 47.6264 49.3476 47.4058V18.5742C49.3472 18.4432 49.3159 18.3141 49.2561 18.1975C49.1964 18.0809 49.1099 17.9801 49.0039 17.9033ZM41.5852 36.0395H32.714V27.7227H41.5852V36.0395ZM31.0506 46.5742H22.7338V37.7029H31.0506V46.5742ZM32.714 37.7029H41.5852V46.5742H32.714V37.7029ZM41.5852 26.0593H31.8823C31.6617 26.0593 31.4502 26.1469 31.2942 26.3029C31.1382 26.4589 31.0506 26.6704 31.0506 26.891V36.0395H21.9021C21.6815 36.0395 21.47 36.1271 21.314 36.2831C21.158 36.4391 21.0704 36.6506 21.0704 36.8712V46.5742H15.5258V22.1781H41.5852V26.0593ZM47.6843 46.5742H43.2486V21.3464C43.2486 21.1259 43.161 20.9143 43.005 20.7583C42.849 20.6024 42.6375 20.5147 42.4169 20.5147H14.6942C14.4736 20.5147 14.262 20.6024 14.1061 20.7583C13.9501 20.9143 13.8625 21.1259 13.8625 21.3464V46.5742H8.87237V18.99L28.0066 4.64069L47.6843 18.9955V46.5742Z" fill="#27AE60"/>
</svg>

<svg viewBox="0 0 56 56" fill="none" xmlns="http://www.w3.org/2000/svg"><path d="M49.004 17.903L28.489 2.933a.832.832 0 00-.987 0l-19.96 14.97a.83.83 0 00-.333.666V47.4a.832.832 0 00.832.837h40.475a.831.831 0 00.832-.831V18.574a.831.831 0 00-.344-.67zM41.585 36.04h-8.871v-8.316h8.871v8.316zM31.051 46.575h-8.317v-8.871h8.317v8.871zm1.663-8.871h8.871v8.871h-8.871v-8.871zm8.871-11.644h-9.703a.832.832 0 00-.831.832v9.148h-9.149a.832.832 0 00-.832.832v9.703h-5.544V22.178h26.06v3.881zm6.1 20.515h-4.436V21.346a.832.832 0 00-.832-.831H14.694a.832.832 0 00-.832.831v25.228h-4.99V18.99L28.007 4.64l19.677 14.355v27.58z" fill="#27AE60"/></svg>
